X: 955
T: We'll drink to good health
C: anon.
O: Ireland
B: Francis O'Neill: "The Dance Music of Ireland" (1907) no. 955
R: Hornpipe
Z: Transcribed by Frank Nordberg - http://www.musicaviva.com
F: http://www.musicaviva.com/abc/tunes/ireland/oneill-1001/oneill-1001-095
5.abc
M: C
L: 1/8
K: D
(3(ABc)|dce(c dB)AF|DCE(C DEF)G|A(dcd) BGED|CDEF E2(3(ABc)|(3(dcd) (ec) d
BAF|DCE(C DEF)G|A(dcd) BGE(C|D2)DDD2:|
|:(FG)|A(Bcd) edeg|fde(c dc)de|fde(c dB)A(F|E2)EEE2 (3(ABc)|(3(dcd) (ec)
dBAF|D(CEC) DEFG|A(dcd) BGE(C|D2)DDD2:|
W:
W:
W: From Musica Viva - http://www.musicaviva.com
W: the Internet center for free sheet music downloads.


